img/linkedin_icon.svg

<svg height="30" viewBox="0 0 30 30" width="30" xmlns="http://www.w3.org/2000/svg"><g fill="#fff"><path d="m14.9991667 29.867c-8.19650003 0-14.86483337-6.6688333-14.86483337-14.8658333 0-8.19833337 6.66833334-14.8681667 14.86483337-14.8681667 8.1978333 0 14.8666666 6.66983333 14.8666666 14.8681667 0 8.197-6.6691666 14.8658333-14.8666666 14.8658333zm0-28.40066667c-7.46133337 0-13.53150003 6.07183334-13.53150003 13.53483337 0 7.4618333 6.07016666 13.5325 13.53150003 13.5325 7.4623333 0 13.5333333-6.0708334 13.5333333-13.5325 0-7.46300003-6.0708333-13.53483337-13.5333333-13.53483337z"/><path d="m8.77566667 5.98733333c1.07183333 0 1.94200003.8705 1.94200003 1.943 0 1.072-.87033337 1.945-1.94200003 1.945-1.07416667 0-1.94366667-.873-1.94366667-1.945 0-1.0725.86933333-1.943 1.94366667-1.943zm-1.6765 5.36133337h3.35266663v10.7831666h-3.35266663zm5.45483333 0h3.2155v1.472h.0455c.447-.8473334 1.5405-1.7411667 3.1703333-1.7411667 3.3918334 0 4.018 2.2336667 4.018 5.1375v5.915h-3.347v-5.243c0-1.2511667-.0248333-2.8611667-1.7421666-2.8611667-1.7438334 0-2.0095 1.3626667-2.0095 2.7691667v5.335h-3.3506667z"/></g></svg>

<svg xmlns="http://www.w3.org/2000/svg" width="30" height="30" viewBox="0 0 30 30">
  <g fill="#FFF">
    <path d="M14.9991667,29.867 C6.80266667,29.867 0.134333333,23.1981667 0.134333333,15.0011667 C0.134333333,6.80283333 6.80266667,0.133 14.9991667,0.133 C23.197,0.133 29.8658333,6.80283333 29.8658333,15.0011667 C29.8658333,23.1981667 23.1966667,29.867 14.9991667,29.867 Z M14.9991667,1.46633333 C7.53783333,1.46633333 1.46766667,7.53816667 1.46766667,15.0011667 C1.46766667,22.463 7.53783333,28.5336667 14.9991667,28.5336667 C22.4615,28.5336667 28.5325,22.4628333 28.5325,15.0011667 C28.5325,7.53816667 22.4616667,1.46633333 14.9991667,1.46633333 Z"/>
    <path d="M8.77566667 5.98733333C9.8475 5.98733333 10.7176667 6.85783333 10.7176667 7.93033333 10.7176667 9.00233333 9.84733333 9.87533333 8.77566667 9.87533333 7.7015 9.87533333 6.832 9.00233333 6.832 7.93033333 6.832 6.85783333 7.70133333 5.98733333 8.77566667 5.98733333L8.77566667 5.98733333zM7.09916667 11.3486667L10.4518333 11.3486667 10.4518333 22.1318333 7.09916667 22.1318333 7.09916667 11.3486667zM12.554 11.3486667L15.7695 11.3486667 15.7695 12.8206667 15.815 12.8206667C16.262 11.9733333 17.3555 11.0795 18.9853333 11.0795 22.3771667 11.0795 23.0033333 13.3131667 23.0033333 16.217L23.0033333 22.132 19.6563333 22.132 19.6563333 16.889C19.6563333 15.6378333 19.6315 14.0278333 17.9141667 14.0278333 16.1703333 14.0278333 15.9046667 15.3905 15.9046667 16.797L15.9046667 22.132 12.554 22.132 12.554 11.3486667z"/>
  </g>
</svg>
